assets/First quarter moon/Flat/first_quarter_moon_flat.svg

<svg width="32" height="32" viewBox="0 0 32 32" fill="none" xmlns="http://www.w3.org/2000/svg">
<path d="M16 30C23.732 30 30 23.732 30 16C30 8.26801 23.732 2 16 2L14 16L16 30Z" fill="#FCD53F"/>
<path d="M16 30V2C8.26801 2 2 8.26801 2 16C2 23.732 8.26801 30 16 30Z" fill="#533566"/>
<path d="M17 5.5001C17 4.84699 16.5826 4.29137 16 4.08545V6.91474C16.5826 6.70883 17 6.15321 17 5.5001ZM22.5 14.0001C23.8807 14.0001 25 12.8808 25 11.5001C25 10.1194 23.8807 9.00012 22.5 9.00012C21.1193 9.00012 20 10.1194 20 11.5001C20 12.8808 21.1193 14.0001 22.5 14.0001ZM24.8816 26.8227C26.658 25.3632 28.0686 23.475 28.9554 21.3161C28.5122 21.1132 28.0193 21.0001 27.5 21.0001C25.567 21.0001 24 22.5671 24 24.5001C24 25.3914 24.3331 26.2048 24.8816 26.8227ZM16 19.0501V23.9501C16.1616 23.9829 16.3288 24.0001 16.5 24.0001C17.8807 24.0001 19 22.8808 19 21.5001C19 20.1194 17.8807 19.0001 16.5 19.0001C16.3288 19.0001 16.1616 19.0173 16 19.0501Z" fill="#F9C23C"/>
<path d="M15.5 7C15.6753 7 15.8436 6.96992 16 6.91465V4.08535C15.8436 4.03008 15.6753 4 15.5 4C14.6716 4 14 4.67157 14 5.5C14 6.32843 14.6716 7 15.5 7ZM9.5 16C11.433 16 13 14.433 13 12.5C13 10.567 11.433 9 9.5 9C7.567 9 6 10.567 6 12.5C6 14.433 7.567 16 9.5 16ZM4.75012 24.3346C6.15381 26.2261 8.02324 27.7514 10.1888 28.7407C10.6953 28.1336 11 27.3524 11 26.5C11 24.567 9.433 23 7.50001 23C6.38459 23 5.39104 23.5218 4.75012 24.3346ZM16 19.05C14.8589 19.2817 14 20.2906 14 21.5C14 22.7095 14.8589 23.7184 16 23.95V19.05Z" fill="#321B41"/>
</svg>

<svg xmlns="http://www.w3.org/2000/svg" width="32" height="32" fill="none"><path fill="#FCD53F" d="M16 30c7.732 0 14-6.268 14-14S23.732 2 16 2l-2 14 2 14Z"/><path fill="#533566" d="M16 30V2C8.268 2 2 8.268 2 16s6.268 14 14 14Z"/><path fill="#F9C23C" d="M17 5.5a1.5 1.5 0 0 0-1-1.415v2.83A1.5 1.5 0 0 0 17 5.5Zm5.5 8.5a2.5 2.5 0 1 0 0-5 2.5 2.5 0 0 0 0 5Zm2.382 12.823a14.038 14.038 0 0 0 4.073-5.507 3.5 3.5 0 0 0-4.074 5.507ZM16 19.05v4.9a2.5 2.5 0 1 0 0-4.9Z"/><path fill="#321B41" d="M15.5 7c.175 0 .344-.03.5-.085v-2.83A1.5 1.5 0 1 0 15.5 7Zm-6 9a3.5 3.5 0 1 0 0-7 3.5 3.5 0 0 0 0 7Zm-4.75 8.335a14.054 14.054 0 0 0 5.439 4.406 3.5 3.5 0 1 0-5.439-4.406ZM16 19.05a2.501 2.501 0 0 0 0 4.9v-4.9Z"/></svg>
